assets/icons/qvision/view_day.svg

<svg xmlns="http://www.w3.org/2000/svg" height="24" viewBox="0 0 24 24" width="24"><path d="M0 0h24v24H0z" fill="none"/><path d="M2 21h19v-3H2v3zM20 8H3c-.55 0-1 .45-1 1v6c0 .55.45 1 1 1h17c.55 0 1-.45 1-1V9c0-.55-.45-1-1-1zM2 3v3h19V3H2z"/></svg>

<svg width="24" height="24" viewBox="0 0 24 24" fill="none" xmlns="http://www.w3.org/2000/svg">
<g clip-path="url(#clip0_147_4970)">
<path d="M2 21H21V18H2V21ZM20 8H3C2.45 8 2 8.45 2 9V15C2 15.55 2.45 16 3 16H20C20.55 16 21 15.55 21 15V9C21 8.45 20.55 8 20 8ZM2 3V6H21V3H2Z" fill="#323232"/>
</g>
<defs>
<clipPath id="clip0_147_4970">
<rect width="24" height="24" fill="white"/>
</clipPath>
</defs>
</svg>
